X: 1
T:Gitane (E. Montbel)
M:3/4
L:1/4
K:C
dBd|GBd|gf>e|dBd|cAc|f>ed|\
cBc|d/e/fe|dBd|GBd|gf>e|
dBd|cAc|f>ed|cBA|G3:|\
|:dB/d/ B/d/|gfe|dB/d/ B/d/|gfe|c A/c/ A/c/|
fed|cBc|d/e/fe|dB/d/ B/d/|gfe|\
dB/d/ B/d/|gfe|c A/c/ A/c/|fed|cBA|G3:|
